icon/lg/neat.svg

<?xml version="1.0" encoding="UTF-8"?>
<svg viewBox="0 0 256 256" version="1.1" xmlns="http://www.w3.org/2000/svg" preserveAspectRatio="xMidYMid" height="1em" width="1em">
  <defs>
    <linearGradient x1="50%" y1="100%" x2="50%" y2="-2.22044605e-14%" id="neatLinearGradient-1">
      <stop stop-color="#21E9F4" offset="0%"/>
      <stop stop-color="#00D4FF" offset="100%"/>
    </linearGradient>
  </defs>
  <g>
    <path d="M256,223.693416 C255.984,224.779927 255.952,225.866438 255.84,226.952949 C255.568,229.589335 254.976,232.193766 254.064,234.670372 C250.848,243.426371 243.76,250.50467 234.992,253.716268 C231.728,254.914626 228.304,255.505816 224.832,255.63364 C160.56,256.448523 96.272,255.649618 32,255.649618 C30.912,255.63364 29.824,255.601684 28.736,255.489837 C26.096,255.21821 23.488,254.62702 21.008,253.716268 C16.16,251.942699 11.776,248.98675 8.32,245.167984 C5.36,241.940408 3.088,238.089685 1.68,233.935379 C0.56,230.627912 0.048,227.19262 0,223.693416 L0,0 L128,127.824809 L256,0 C256,74.5697981 256,149.123618 256,223.693416 L256,223.693416 Z M12,223.613526 C12.032,225.994263 12.384,228.311087 13.216,230.548022 C15.216,236.02851 19.648,240.454444 25.136,242.451707 C27.168,243.202678 29.312,243.570174 31.472,243.666043 C95.824,244.464948 160.176,244.464948 224.528,243.666043 C226.688,243.570174 228.832,243.202678 230.864,242.451707 C236.352,240.454444 240.784,236.02851 242.784,230.548022 C243.616,228.311087 243.968,225.994263 244,223.613526 L244,28.9363412 L136.48,136.293203 L135.712,137.012217 C134.864,137.651341 134.032,138.242531 133.072,138.689918 C129.888,140.175881 126.112,140.175881 122.928,138.689918 C121.984,138.242531 121.088,137.683298 120.288,137.012217 C120.016,136.788524 119.776,136.532874 119.52,136.293203 L12,28.9363412 C12,93.82341 12,158.726457 12,223.613526 L12,223.613526 Z" fill="#00D4FF"/>
    <path d="M9.376,246.286451 L128,127.824809 L246.624,246.286451 C240.832,252.070524 232.832,255.649618 224,255.649618 L32,255.649618 C23.168,255.649618 15.168,252.070524 9.376,246.286451 Z" fill="url(#neatLinearGradient-1)"/>
  </g>
</svg>

<svg width="256" height="256" xmlns="http://www.w3.org/2000/svg" preserveAspectRatio="xMidYMid"><defs><linearGradient x1="50%" y1="100%" x2="50%" y2="0%" id="a"><stop stop-color="#21E9F4" offset="0%"/><stop stop-color="#00D4FF" offset="100%"/></linearGradient></defs><path d="M256 223.693c-.016 1.087-.048 2.173-.16 3.26a31.82 31.82 0 0 1-1.776 7.717c-3.216 8.756-10.304 15.835-19.072 19.046-3.264 1.199-6.688 1.79-10.16 1.918-64.272.815-128.56.016-192.832.016-1.088-.016-2.176-.048-3.264-.16a31.936 31.936 0 0 1-7.728-1.774 32 32 0 0 1-12.688-8.548 31.736 31.736 0 0 1-6.64-11.233C.56 230.628.048 227.193 0 223.693V0l128 127.825L256 0v223.693Zm-244-.08c.032 2.381.384 4.698 1.216 6.935 2 5.48 6.432 9.906 11.92 11.904 2.032.75 4.176 1.118 6.336 1.214 64.352.799 128.704.799 193.056 0 2.16-.096 4.304-.463 6.336-1.214 5.488-1.998 9.92-6.423 11.92-11.904.832-2.237 1.184-4.554 1.216-6.934V28.936L136.48 136.293l-.768.72c-.848.638-1.68 1.23-2.64 1.677a12.099 12.099 0 0 1-10.144 0 12.31 12.31 0 0 1-2.64-1.678c-.272-.223-.512-.48-.768-.719L12 28.936v194.678Z" fill="#00D4FF"/><path d="M9.376 246.286 128 127.825l118.624 118.461c-5.792 5.785-13.792 9.364-22.624 9.364H32c-8.832 0-16.832-3.58-22.624-9.364Z" fill="url(#a)"/></svg>
